src/main/resources/icons/KubernetesIcons/icons/helmChartLock.svg

<svg width="16" height="16" viewBox="0 0 16 16" fill="none" xmlns="http://www.w3.org/2000/svg">
<path fill-rule="evenodd" clip-rule="evenodd" d="M11.5289 13.759C11.5206 13.7584 11.5154 13.7513 11.5064 13.7513H11.4936C11.4852 13.7513 11.4794 13.7584 11.4711 13.759C10.2355 13.7436 9.23843 12.7394 9.23843 11.5C9.23843 10.2509 10.2509 9.23843 11.5 9.23843C12.7491 9.23843 13.7622 10.2509 13.7622 11.5C13.7622 12.7394 12.7645 13.7436 11.5289 13.759M15.4516 11.0821L14.6757 11.1162C14.6037 10.5184 14.3723 9.97579 14.0187 9.52514L14.5889 9.00186C14.7496 8.84243 14.8461 8.48307 14.6866 8.32236L14.6776 8.31336C14.5169 8.15393 14.1582 8.251 13.9988 8.41107L13.4749 8.98129C13.0242 8.62836 12.4816 8.39629 11.8844 8.32493L11.9179 7.549C11.9179 7.32271 11.7321 7 11.5064 7H11.4936C11.2679 7 11.0821 7.32271 11.0821 7.549L11.1156 8.32493C10.5184 8.39629 9.97579 8.62836 9.52514 8.98129L9.00121 8.41107C8.84179 8.251 8.48307 8.15393 8.32236 8.31336L8.31336 8.32236C8.15393 8.48307 8.25036 8.84243 8.41107 9.00186L8.98129 9.52514C8.62771 9.97579 8.39629 10.5184 8.32493 11.1162L7.549 11.0821C7.32271 11.0821 7 11.2679 7 11.4942V11.5064C7 11.7327 7.32271 11.9185 7.549 11.9185L8.32493 11.8844C8.39629 12.4823 8.62771 13.0242 8.98129 13.4755L8.41107 13.9988C8.25036 14.1582 8.15393 14.5176 8.31336 14.6783L8.32236 14.6866C8.48307 14.8461 8.84179 14.7496 9.00121 14.5889L9.52514 14.0187C9.97579 14.3723 10.5184 14.6037 11.1156 14.6757L11.0821 15.4516C11.0821 15.6773 11.2679 16 11.4936 16H11.5064C11.7321 16 11.9179 15.6773 11.9179 15.4516L11.8844 14.6757C12.4816 14.6037 13.0242 14.3723 13.4749 14.0187L13.9988 14.5889C14.1582 14.7496 14.5169 14.8461 14.6776 14.6866L14.6866 14.6783C14.8461 14.5176 14.7496 14.1582 14.5889 13.9988L14.0187 13.4755C14.3723 13.0242 14.6037 12.4823 14.6757 11.8844L15.4516 11.9185C15.6773 11.9185 16 11.7327 16 11.5064V11.4942C16 11.2679 15.6773 11.0821 15.4516 11.0821" fill="#297FA5"/>
<path fill-rule="evenodd" clip-rule="evenodd" d="M14 5V6.59971C14.3578 6.78261 14.6929 7.00353 15 7.25716V7V2H1V7H2V5H5V7H3C4.5 7 6 7.5 6 10V8H7.25716C7.57052 7.62057 7.93379 7.28389 8.33692 7H6V5H10V6.20703C10.3223 6.11588 10.6566 6.05337 11 6.02242V5H14Z" fill="#9AA7B0"/>
<path fill-rule="evenodd" clip-rule="evenodd" d="M2 9.69643C2 9.3118 2.44772 9 3 9C3.55228 9 4 9.3118 4 9.69643V11.4286H2V9.69643ZM1 11.4286V9.71429C1 8.76751 1.89543 8 3 8C4.10457 8 5 8.76751 5 9.71429V11.4286H6V16H0V11.4286H1Z" fill="#F26522" fill-opacity="0.7"/>
</svg>

<svg width="16" height="16" viewBox="0 0 16 16" fill="none" xmlns="http://www.w3.org/2000/svg"><rect id="frame" width="16" height="16" fill="none"/><path fill-rule="evenodd" clip-rule="evenodd" d="M11.529 13.759c-.008 0-.014-.008-.023-.008h-.012c-.009 0-.015.007-.023.008a2.26 2.26 0 0 1 .029-4.52 2.26 2.26 0 1 1 .029 4.52m3.923-2.677l-.776.034a3.18 3.18 0 0 0-.657-1.59l.57-.524c.16-.16.257-.519.098-.68l-.01-.009c-.16-.16-.519-.062-.678.098l-.524.57a3.18 3.18 0 0 0-1.59-.656l.033-.776c0-.226-.186-.549-.412-.549h-.012c-.226 0-.412.323-.412.549l.034.776a3.18 3.18 0 0 0-1.59.656L9 8.411c-.16-.16-.518-.257-.679-.098l-.009.01c-.16.16-.063.52.098.679l.57.523c-.353.45-.585.993-.656 1.591l-.776-.034c-.226 0-.549.186-.549.412v.012c0 .227.323.412.549.412l.776-.034c.071.598.303 1.14.656 1.591l-.57.524c-.16.16-.257.519-.098.68l.01.008c.16.16.519.063.678-.098l.524-.57c.45.353.993.585 1.59.657l-.033.776c0 .225.186.548.412.548h.012c.226 0 .412-.323.412-.548l-.034-.776a3.18 3.18 0 0 0 1.59-.657l.525.57c.16.16.518.257.679.098l.009-.009c.16-.16.063-.52-.098-.68l-.57-.522c.353-.452.585-.994.657-1.592l.776.034c.225 0 .548-.185.548-.412v-.012c0-.226-.323-.412-.548-.412" fill="#297FA5"/><path fill-rule="evenodd" clip-rule="evenodd" d="M14 5v1.6c.358.183.693.404 1 .657V2H1v5h1V5h3v2H3c1.5 0 3 .5 3 3V8h1.257c.314-.38.677-.716 1.08-1H6V5h4v1.207a5.48 5.48 0 0 1 1-.185V5h3z" fill="#9AA7B0"/><path fill-rule="evenodd" clip-rule="evenodd" d="M2 9.696C2 9.312 2.448 9 3 9s1 .312 1 .696v1.733H2V9.696zM1 11.43V9.714C1 8.768 1.895 8 3 8s2 .768 2 1.714v1.715h1V16H0v-4.571h1z" fill="#F26522" fill-opacity=".7"/></svg>
